brandFactory_export/2.Regular/Pregunta interrogacion _2Regular.svg

<?xml version="1.0" encoding="UTF-8"?>
<svg width="24px" height="24px" viewBox="0 0 24 24" version="1.1" xmlns="http://www.w3.org/2000/svg" xmlns:xlink="http://www.w3.org/1999/xlink">
    <title>2.Regular/Pregunta interrogacion _2Regular</title>
    <g id="Symbols" stroke="none" stroke-width="1" fill="none" fill-rule="evenodd">
        <g id="2.Regular/Pregunta-interrogacion-_2Regular" fill="#5CB615" fill-rule="nonzero">
            <path d="M12.3058824,22.1714286 C14.6218487,22.1277311 22.1781513,21.2605042 22.1781513,11.8420168 C22.1781513,2.42689076 14.5848739,1.51260504 12.2588235,1.45546218 C11.9428571,1.4487395 11.5697479,1.44201681 11.2302521,1.44537815 C8.93445378,1.46890756 1.44537815,2.26890756 1.44537815,11.7781513 C1.44537815,21.297479 8.99831933,22.1445378 11.3142857,22.1781513 C11.6470588,22.1848739 12.010084,22.1781513 12.3058824,22.1714286 L12.3058824,22.1714286 Z M12.292437,0.0134453782 C14.1848739,0.0571428571 23.6235294,0.840336134 23.6235294,11.8420168 C23.6235294,22.8537815 14.2184874,23.5831933 12.3294118,23.6168067 C12.1210084,23.6201681 11.8756303,23.6235294 11.6336134,23.6235294 C11.5193277,23.6235294 11.405042,23.6235294 11.2941176,23.6201681 C9.40840336,23.5966387 0,22.897479 0,11.7781513 C0,0.658823529 9.34453782,0.0201680672 11.2201681,0.00336134454 C11.5697479,-0.00336134454 11.9630252,0.00336134454 12.292437,0.0134453782 Z M11.2840336,17.2739496 C11.9193277,17.2739496 12.3327731,17.6907563 12.3327731,18.2890756 C12.3327731,18.9579832 11.9260504,19.3579832 11.3210084,19.3579832 C10.6756303,19.3579832 10.2722689,18.9579832 10.2722689,18.3663866 L10.2722689,18.2890756 C10.2756303,17.6907563 10.6890756,17.2739496 11.2840336,17.2739496 Z M14.4571429,5.20336134 C15.2941176,5.82184874 15.687395,6.67226891 15.687395,7.88235294 C15.687395,9.36134454 15.0756303,10.2420168 13.6739496,11.8957983 C12.0672269,13.7546218 12.0033613,13.8285714 12.0033613,15.5630252 C12.0033613,15.8285714 11.7882353,16.0436975 11.5226891,16.0436975 L10.9915966,16.0436975 C10.7630252,16.0436975 10.5647059,15.8823529 10.5176471,15.6537815 C10.4705882,15.405042 10.4470588,15.1495798 10.4504202,14.8941176 C10.4504202,13.5932773 10.907563,12.8235294 11.9327731,11.589916 L12.1277311,11.3546218 C13.8151261,9.35798319 14.1344538,8.8 14.1344538,7.85882353 C14.1344538,7.18991597 13.9428571,6.75294118 13.492437,6.39327731 C13.2336134,6.18823529 12.7798319,5.94957983 11.5394958,5.94957983 C10.8638655,5.94957983 10.2689076,6.02689076 9.5394958,6.21176471 C9.28067227,6.27563025 9.02184874,6.1210084 8.95462185,5.86554622 C8.9512605,5.85546218 8.9512605,5.84537815 8.94789916,5.83529412 L8.87058824,5.42521008 C8.8302521,5.21008403 8.93781513,4.99495798 9.13613445,4.90084034 C9.58991597,4.68571429 10.702521,4.46383193 11.7747899,4.46383193 C12.9042017,4.4605042 13.805042,4.7092437 14.4571429,5.20336134 L14.4571429,5.20336134 Z" id="Pregunta-interrogacion-_2Regular"></path>
        </g>
    </g>
</svg>

<svg width="24" height="24" viewBox="0 0 24 24" xmlns="http://www.w3.org/2000/svg"><path d="M12.306 22.171c2.316-.043 9.872-.91 9.872-10.329 0-9.415-7.593-10.33-9.92-10.387-.315-.006-.688-.013-1.028-.01-2.296.024-9.785.824-9.785 10.333 0 9.52 7.553 10.367 9.87 10.4.332.007.695 0 .99-.007zM12.292.013c1.893.044 11.332.827 11.332 11.829 0 11.012-9.406 11.741-11.295 11.775-.208.003-.453.007-.695.007-.115 0-.229 0-.34-.004C9.408 23.597 0 22.897 0 11.778 0 .658 9.345.02 11.22.003c.35-.006.743 0 1.072.01zm-1.008 17.26c.635 0 1.049.418 1.049 1.016 0 .669-.407 1.069-1.012 1.069-.645 0-1.049-.4-1.049-.992v-.077c.004-.598.417-1.015 1.012-1.015zm3.173-12.07c.837.619 1.23 1.47 1.23 2.68 0 1.478-.611 2.359-2.013 4.013-1.607 1.859-1.67 1.933-1.67 3.667a.48.48 0 01-.481.48h-.531a.485.485 0 01-.474-.39 3.825 3.825 0 01-.068-.759c0-1.3.458-2.07 1.483-3.304l.195-.235c1.687-1.997 2.006-2.555 2.006-3.496 0-.67-.191-1.106-.642-1.466-.258-.205-.712-.443-1.953-.443-.675 0-1.27.077-2 .262a.483.483 0 01-.584-.346c-.004-.01-.004-.02-.007-.03l-.077-.41a.48.48 0 01.265-.525c.454-.215 1.567-.437 2.639-.437 1.13-.003 2.03.245 2.682.74z" fill="#5CB615" fill-rule="nonzero"/></svg>
